TileServer und Tiles/svg/9/7_7.svg

<?xml version='1.0' encoding='UTF-8' standalone='no'?>
<svg xmlns="http://www.w3.org/2000/svg" width="497pt" viewBox="0 0 497 279" xmlns:xlink="http://www.w3.org/1999/xlink" height="279pt">
 <defs style="stroke:none;" overflow="visible">
  <path id="glyph0-9" d="M 4.015625 -5.359375 L 4.984375 -5.359375 L 2.6875 -2.78125 L 5.171875 0 L 4.15625 0 L 1.734375 -2.71875 L 1.734375 0 L 0.84375 0 L 0.84375 -5.359375 L 1.734375 -5.359375 L 1.734375 -2.765625 Z M 4.015625 -5.359375 "/>
  <path id="glyph0-8" d="M 1.734375 -3.15625 L 3.3125 -3.15625 C 4.707031 -3.15625 5.40625 -2.648438 5.40625 -1.640625 C 5.40625 -1.140625 5.234375 -0.738281 4.890625 -0.4375 C 4.554688 -0.144531 4.019531 0 3.28125 0 L 0.84375 0 L 0.84375 -5.359375 L 1.734375 -5.359375 Z M 4.53125 -1.59375 C 4.53125 -1.914062 4.414062 -2.132812 4.1875 -2.25 C 3.957031 -2.375 3.632812 -2.4375 3.21875 -2.4375 L 1.734375 -2.4375 L 1.734375 -0.703125 L 3.234375 -0.703125 C 3.609375 -0.703125 3.914062 -0.769531 4.15625 -0.90625 C 4.40625 -1.039062 4.53125 -1.269531 4.53125 -1.59375 Z M 4.53125 -1.59375 "/>
  <path id="glyph0-7" d="M 3 0.09375 C 2.53125 0.09375 2.109375 0 1.734375 -0.1875 C 1.367188 -0.382812 1.078125 -0.6875 0.859375 -1.09375 C 0.648438 -1.5 0.546875 -2.019531 0.546875 -2.65625 C 0.546875 -3.3125 0.65625 -3.84375 0.875 -4.25 C 1.09375 -4.664062 1.390625 -4.96875 1.765625 -5.15625 C 2.148438 -5.351562 2.582031 -5.453125 3.0625 -5.453125 C 3.332031 -5.453125 3.59375 -5.425781 3.84375 -5.375 C 4.101562 -5.320312 4.3125 -5.253906 4.46875 -5.171875 L 4.203125 -4.4375 C 4.035156 -4.5 3.84375 -4.554688 3.625 -4.609375 C 3.414062 -4.660156 3.222656 -4.6875 3.046875 -4.6875 C 1.984375 -4.6875 1.453125 -4.007812 1.453125 -2.65625 C 1.453125 -2.007812 1.582031 -1.515625 1.84375 -1.171875 C 2.101562 -0.828125 2.484375 -0.65625 2.984375 -0.65625 C 3.285156 -0.65625 3.546875 -0.6875 3.765625 -0.75 C 3.984375 -0.8125 4.1875 -0.882812 4.375 -0.96875 L 4.375 -0.1875 C 4.195312 -0.09375 4 -0.0234375 3.78125 0.015625 C 3.5625 0.0664062 3.300781 0.09375 3 0.09375 Z M 3 0.09375 "/>
  <path id="glyph0-6" d="M 1.734375 -5.359375 L 1.734375 -3.125 L 4.640625 -3.125 L 4.640625 -5.359375 L 5.515625 -5.359375 L 5.515625 0 L 4.640625 0 L 4.640625 -2.390625 L 1.734375 -2.390625 L 1.734375 0 L 0.84375 0 L 0.84375 -5.359375 Z M 1.734375 -5.359375 "/>
  <path id="glyph0-5" d="M 1.1875 0 L 0.15625 0 L 1.6875 -2.25 C 1.476562 -2.300781 1.273438 -2.382812 1.078125 -2.5 C 0.890625 -2.625 0.734375 -2.789062 0.609375 -3 C 0.492188 -3.207031 0.4375 -3.46875 0.4375 -3.78125 C 0.4375 -4.289062 0.609375 -4.679688 0.953125 -4.953125 C 1.304688 -5.222656 1.769531 -5.359375 2.34375 -5.359375 L 4.734375 -5.359375 L 4.734375 0 L 3.859375 0 L 3.859375 -2.125 L 2.5625 -2.125 Z M 1.296875 -3.765625 C 1.296875 -3.460938 1.410156 -3.234375 1.640625 -3.078125 C 1.867188 -2.929688 2.1875 -2.859375 2.59375 -2.859375 L 3.859375 -2.859375 L 3.859375 -4.625 L 2.4375 -4.625 C 2.019531 -4.625 1.722656 -4.546875 1.546875 -4.390625 C 1.378906 -4.234375 1.296875 -4.023438 1.296875 -3.765625 Z M 1.296875 -3.765625 "/>
  <path id="glyph0-4" d="M 4.828125 -5.359375 L 4.828125 -0.734375 L 5.609375 -0.734375 L 5.609375 1.859375 L 4.765625 1.859375 L 4.765625 0 L 1.03125 0 L 1.03125 1.859375 L 0.1875 1.859375 L 0.1875 -0.734375 L 0.625 -0.734375 C 1.082031 -1.367188 1.425781 -2.09375 1.65625 -2.90625 C 1.882812 -3.71875 2.003906 -4.535156 2.015625 -5.359375 Z M 3.984375 -4.671875 L 2.796875 -4.671875 C 2.765625 -4.210938 2.691406 -3.742188 2.578125 -3.265625 C 2.460938 -2.785156 2.316406 -2.320312 2.140625 -1.875 C 1.960938 -1.4375 1.757812 -1.054688 1.53125 -0.734375 L 3.984375 -0.734375 Z M 3.984375 -4.671875 "/>
  <path id="glyph0-3" d="M 3.40625 -5.453125 C 4.0625 -5.453125 4.585938 -5.222656 4.984375 -4.765625 C 5.390625 -4.304688 5.59375 -3.613281 5.59375 -2.6875 C 5.59375 -1.769531 5.390625 -1.078125 4.984375 -0.609375 C 4.585938 -0.140625 4.054688 0.09375 3.390625 0.09375 C 2.972656 0.09375 2.628906 0.015625 2.359375 -0.140625 C 2.085938 -0.296875 1.878906 -0.476562 1.734375 -0.6875 L 1.671875 -0.6875 C 1.679688 -0.570312 1.691406 -0.425781 1.703125 -0.25 C 1.722656 -0.0703125 1.734375 0.078125 1.734375 0.203125 L 1.734375 2.40625 L 0.84375 2.40625 L 0.84375 -5.359375 L 1.5625 -5.359375 L 1.6875 -4.625 L 1.734375 -4.625 C 1.890625 -4.863281 2.097656 -5.0625 2.359375 -5.21875 C 2.617188 -5.375 2.96875 -5.453125 3.40625 -5.453125 Z M 3.234375 -4.71875 C 2.691406 -4.71875 2.304688 -4.5625 2.078125 -4.25 C 1.859375 -3.945312 1.742188 -3.484375 1.734375 -2.859375 L 1.734375 -2.6875 C 1.734375 -2.03125 1.835938 -1.519531 2.046875 -1.15625 C 2.265625 -0.800781 2.671875 -0.625 3.265625 -0.625 C 3.585938 -0.625 3.851562 -0.710938 4.0625 -0.890625 C 4.269531 -1.078125 4.425781 -1.320312 4.53125 -1.625 C 4.632812 -1.9375 4.6875 -2.296875 4.6875 -2.703125 C 4.6875 -3.316406 4.566406 -3.804688 4.328125 -4.171875 C 4.097656 -4.535156 3.734375 -4.71875 3.234375 -4.71875 Z M 3.234375 -4.71875 "/>
  <path id="glyph0-2" d="M 2.921875 -5.453125 C 3.378906 -5.453125 3.769531 -5.351562 4.09375 -5.15625 C 4.425781 -4.957031 4.679688 -4.675781 4.859375 -4.3125 C 5.035156 -3.945312 5.125 -3.523438 5.125 -3.046875 L 5.125 -2.515625 L 1.453125 -2.515625 C 1.472656 -1.898438 1.628906 -1.4375 1.921875 -1.125 C 2.222656 -0.8125 2.640625 -0.65625 3.171875 -0.65625 C 3.515625 -0.65625 3.816406 -0.6875 4.078125 -0.75 C 4.335938 -0.8125 4.609375 -0.898438 4.890625 -1.015625 L 4.890625 -0.25 C 4.617188 -0.125 4.347656 -0.0351562 4.078125 0.015625 C 3.816406 0.0664062 3.5 0.09375 3.125 0.09375 C 2.625 0.09375 2.175781 -0.00390625 1.78125 -0.203125 C 1.394531 -0.410156 1.09375 -0.71875 0.875 -1.125 C 0.65625 -1.539062 0.546875 -2.046875 0.546875 -2.640625 C 0.546875 -3.222656 0.644531 -3.722656 0.84375 -4.140625 C 1.039062 -4.566406 1.316406 -4.890625 1.671875 -5.109375 C 2.023438 -5.335938 2.441406 -5.453125 2.921875 -5.453125 Z M 2.90625 -4.734375 C 2.488281 -4.734375 2.15625 -4.597656 1.90625 -4.328125 C 1.664062 -4.066406 1.523438 -3.691406 1.484375 -3.203125 L 4.203125 -3.203125 C 4.203125 -3.660156 4.097656 -4.03125 3.890625 -4.3125 C 3.679688 -4.59375 3.351562 -4.734375 2.90625 -4.734375 Z M 2.90625 -4.734375 "/>
  <path id="glyph0-1" d="M 0.96875 0 L 0.96875 -7.140625 L 5.203125 -7.140625 L 5.203125 -6.34375 L 1.875 -6.34375 L 1.875 -4.125 L 2.9375 -4.125 C 3.644531 -4.125 4.195312 -4.035156 4.59375 -3.859375 C 4.988281 -3.679688 5.257812 -3.441406 5.40625 -3.140625 C 5.5625 -2.835938 5.640625 -2.488281 5.640625 -2.09375 C 5.640625 -1.4375 5.441406 -0.921875 5.046875 -0.546875 C 4.648438 -0.179688 3.988281 0 3.0625 0 Z M 1.875 -0.765625 L 2.96875 -0.765625 C 3.613281 -0.765625 4.0625 -0.875 4.3125 -1.09375 C 4.570312 -1.3125 4.703125 -1.644531 4.703125 -2.09375 C 4.703125 -2.550781 4.554688 -2.875 4.265625 -3.0625 C 3.984375 -3.25 3.5 -3.34375 2.8125 -3.34375 L 1.875 -3.34375 Z M 1.875 -0.765625 "/>
  <path id="glyph0-0" d="M 0.9375 0 L 0.9375 -7.140625 L 5.046875 -7.140625 L 5.046875 0 Z M 1.453125 -0.515625 L 4.546875 -0.515625 L 4.546875 -6.625 L 1.453125 -6.625 Z M 1.453125 -0.515625 "/>
 </defs>
 <image width="497" xlink:href="svg/9/7_7.jpg" height="279"/>
 <g>
  <path d="M 90.390625 86.453125 L 90.390625 79.3125 L 94.625 79.3125 L 94.625 80.109375 L 91.296875 80.109375 L 91.296875 82.328125 L 92.359375 82.328125 C 93.066406 82.328125 93.617188 82.417969 94.015625 82.59375 C 94.410156 82.773438 94.679688 83.011719 94.828125 83.3125 C 94.984375 83.617188 95.0625 83.964844 95.0625 84.359375 C 95.0625 85.015625 94.863281 85.53125 94.46875 85.90625 C 94.070312 86.273438 93.410156 86.453125 92.484375 86.453125 Z M 91.296875 85.6875 L 92.390625 85.6875 C 93.035156 85.6875 93.484375 85.578125 93.734375 85.359375 C 93.992188 85.140625 94.125 84.808594 94.125 84.359375 C 94.125 83.902344 93.976562 83.578125 93.6875 83.390625 C 93.40625 83.203125 92.921875 83.109375 92.234375 83.109375 L 91.296875 83.109375 Z M 91.296875 85.6875 " transform=" rotate(  340 115.721 83.4519) " style="fill:none;stroke-width:3;stroke-linecap:butt;stroke-linejoin:round;stroke:rgb(100%,100%,100%);stroke-opacity:0.6;stroke-miterlimit:10;"/>
  <path d="M 98.492188 81 C 98.949219 81 99.339844 81.101562 99.664062 81.296875 C 99.996094 81.496094 100.25 81.777344 100.429688 82.140625 C 100.605469 82.507812 100.695312 82.929688 100.695312 83.40625 L 100.695312 83.9375 L 97.023438 83.9375 C 97.042969 84.554688 97.199219 85.015625 97.492188 85.328125 C 97.792969 85.640625 98.210938 85.796875 98.742188 85.796875 C 99.085938 85.796875 99.386719 85.765625 99.648438 85.703125 C 99.90625 85.640625 100.179688 85.554688 100.460938 85.4375 L 100.460938 86.203125 C 100.1875 86.328125 99.917969 86.417969 99.648438 86.46875 C 99.386719 86.519531 99.070312 86.546875 98.695312 86.546875 C 98.195312 86.546875 97.746094 86.449219 97.351562 86.25 C 96.964844 86.042969 96.664062 85.734375 96.445312 85.328125 C 96.226562 84.914062 96.117188 84.40625 96.117188 83.8125 C 96.117188 83.230469 96.214844 82.730469 96.414062 82.3125 C 96.609375 81.886719 96.886719 81.5625 97.242188 81.34375 C 97.59375 81.117188 98.011719 81 98.492188 81 Z M 98.476562 81.71875 C 98.058594 81.71875 97.726562 81.855469 97.476562 82.125 C 97.234375 82.386719 97.09375 82.761719 97.054688 83.25 L 99.773438 83.25 C 99.773438 82.792969 99.667969 82.421875 99.460938 82.140625 C 99.25 81.859375 98.921875 81.71875 98.476562 81.71875 Z M 98.476562 81.71875 " transform=" rotate(  340 115.721 83.4519) " style="fill:none;stroke-width:3;stroke-linecap:butt;stroke-linejoin:round;stroke:rgb(100%,100%,100%);stroke-opacity:0.6;stroke-miterlimit:10;"/>
  <path d="M 104.617188 81 C 105.273438 81 105.796875 81.230469 106.195312 81.6875 C 106.601562 82.148438 106.804688 82.839844 106.804688 83.765625 C 106.804688 84.683594 106.601562 85.375 106.195312 85.84375 C 105.796875 86.3125 105.265625 86.546875 104.601562 86.546875 C 104.183594 86.546875 103.839844 86.46875 103.570312 86.3125 C 103.296875 86.15625 103.089844 85.976562 102.945312 85.765625 L 102.882812 85.765625 C 102.890625 85.882812 102.902344 86.027344 102.914062 86.203125 C 102.933594 86.382812 102.945312 86.53125 102.945312 86.65625 L 102.945312 88.859375 L 102.054688 88.859375 L 102.054688 81.09375 L 102.773438 81.09375 L 102.898438 81.828125 L 102.945312 81.828125 C 103.101562 81.589844 103.308594 81.390625 103.570312 81.234375 C 103.828125 81.078125 104.179688 81 104.617188 81 Z M 104.445312 81.734375 C 103.902344 81.734375 103.515625 81.890625 103.289062 82.203125 C 103.070312 82.507812 102.953125 82.96875 102.945312 83.59375 L 102.945312 83.765625 C 102.945312 84.421875 103.046875 84.933594 103.257812 85.296875 C 103.476562 85.652344 103.882812 85.828125 104.476562 85.828125 C 104.796875 85.828125 105.0625 85.742188 105.273438 85.5625 C 105.480469 85.375 105.636719 85.132812 105.742188 84.828125 C 105.84375 84.515625 105.898438 84.15625 105.898438 83.75 C 105.898438 83.136719 105.777344 82.648438 105.539062 82.28125 C 105.308594 81.917969 104.945312 81.734375 104.445312 81.734375 Z M 104.445312 81.734375 " transform=" rotate(  340 115.721 83.4519) " style="fill:none;stroke-width:3;stroke-linecap:butt;stroke-linejoin:round;stroke:rgb(100%,100%,100%);stroke-opacity:0.6;stroke-miterlimit:10;"/>
  <path d="M 112.1875 81.09375 L 112.1875 85.71875 L 112.96875 85.71875 L 112.96875 88.3125 L 112.125 88.3125 L 112.125 86.453125 L 108.390625 86.453125 L 108.390625 88.3125 L 107.546875 88.3125 L 107.546875 85.71875 L 107.984375 85.71875 C 108.441406 85.085938 108.785156 84.359375 109.015625 83.546875 C 109.242188 82.734375 109.363281 81.917969 109.375 81.09375 Z M 111.34375 81.78125 L 110.15625 81.78125 C 110.125 82.242188 110.050781 82.710938 109.9375 83.1875 C 109.820312 83.667969 109.675781 84.132812 109.5 84.578125 C 109.320312 85.015625 109.117188 85.398438 108.890625 85.71875 L 111.34375 85.71875 Z M 111.34375 81.78125 " transform=" rotate(  340 115.721 83.4519) " style="fill:none;stroke-width:3;stroke-linecap:butt;stroke-linejoin:round;stroke:rgb(100%,100%,100%);stroke-opacity:0.6;stroke-miterlimit:10;"/>
  <path d="M 114.359375 86.453125 L 113.328125 86.453125 L 114.859375 84.203125 C 114.648438 84.152344 114.445312 84.070312 114.25 83.953125 C 114.0625 83.828125 113.90625 83.664062 113.78125 83.453125 C 113.664062 83.246094 113.609375 82.984375 113.609375 82.671875 C 113.609375 82.164062 113.78125 81.773438 114.125 81.5 C 114.476562 81.230469 114.941406 81.09375 115.515625 81.09375 L 117.90625 81.09375 L 117.90625 86.453125 L 117.03125 86.453125 L 117.03125 84.328125 L 115.734375 84.328125 Z M 114.46875 82.6875 C 114.46875 82.992188 114.582031 83.21875 114.8125 83.375 C 115.039062 83.523438 115.359375 83.59375 115.765625 83.59375 L 117.03125 83.59375 L 117.03125 81.828125 L 115.609375 81.828125 C 115.191406 81.828125 114.894531 81.90625 114.71875 82.0625 C 114.550781 82.21875 114.46875 82.429688 114.46875 82.6875 Z M 114.46875 82.6875 " transform=" rotate(  340 115.721 83.4519) " style="fill:none;stroke-width:3;stroke-linecap:butt;stroke-linejoin:round;stroke:rgb(100%,100%,100%);stroke-opacity:0.6;stroke-miterlimit:10;"/>
  <path d="M 120.496094 81.09375 L 120.496094 83.328125 L 123.402344 83.328125 L 123.402344 81.09375 L 124.277344 81.09375 L 124.277344 86.453125 L 123.402344 86.453125 L 123.402344 84.0625 L 120.496094 84.0625 L 120.496094 86.453125 L 119.605469 86.453125 L 119.605469 81.09375 Z M 120.496094 81.09375 " transform=" rotate(  340 115.721 83.4519) " style="fill:none;stroke-width:3;stroke-linecap:butt;stroke-linejoin:round;stroke:rgb(100%,100%,100%);stroke-opacity:0.6;stroke-miterlimit:10;"/>
  <path d="M 128.128906 86.546875 C 127.660156 86.546875 127.238281 86.453125 126.863281 86.265625 C 126.496094 86.070312 126.207031 85.765625 125.988281 85.359375 C 125.777344 84.953125 125.675781 84.433594 125.675781 83.796875 C 125.675781 83.140625 125.785156 82.609375 126.003906 82.203125 C 126.222656 81.789062 126.519531 81.484375 126.894531 81.296875 C 127.277344 81.101562 127.710938 81 128.191406 81 C 128.460938 81 128.722656 81.027344 128.972656 81.078125 C 129.230469 81.132812 129.441406 81.199219 129.597656 81.28125 L 129.332031 82.015625 C 129.164062 81.953125 128.972656 81.898438 128.753906 81.84375 C 128.542969 81.792969 128.351562 81.765625 128.175781 81.765625 C 127.113281 81.765625 126.582031 82.445312 126.582031 83.796875 C 126.582031 84.445312 126.710938 84.9375 126.972656 85.28125 C 127.230469 85.625 127.613281 85.796875 128.113281 85.796875 C 128.414062 85.796875 128.675781 85.765625 128.894531 85.703125 C 129.113281 85.640625 129.316406 85.570312 129.503906 85.484375 L 129.503906 86.265625 C 129.324219 86.359375 129.128906 86.429688 128.910156 86.46875 C 128.691406 86.519531 128.429688 86.546875 128.128906 86.546875 Z M 128.128906 86.546875 " transform=" rotate(  340 115.721 83.4519) " style="fill:none;stroke-width:3;stroke-linecap:butt;stroke-linejoin:round;stroke:rgb(100%,100%,100%);stroke-opacity:0.6;stroke-miterlimit:10;"/>
  <path d="M 131.664062 83.296875 L 133.242188 83.296875 C 134.636719 83.296875 135.335938 83.804688 135.335938 84.8125 C 135.335938 85.3125 135.164062 85.714844 134.820312 86.015625 C 134.484375 86.308594 133.949219 86.453125 133.210938 86.453125 L 130.773438 86.453125 L 130.773438 81.09375 L 131.664062 81.09375 Z M 134.460938 84.859375 C 134.460938 84.539062 134.34375 84.320312 134.117188 84.203125 C 133.886719 84.078125 133.5625 84.015625 133.148438 84.015625 L 131.664062 84.015625 L 131.664062 85.75 L 133.164062 85.75 C 133.539062 85.75 133.84375 85.683594 134.085938 85.546875 C 134.335938 85.414062 134.460938 85.183594 134.460938 84.859375 Z M 134.460938 84.859375 " transform=" rotate(  340 115.721 83.4519) " style="fill:none;stroke-width:3;stroke-linecap:butt;stroke-linejoin:round;stroke:rgb(100%,100%,100%);stroke-opacity:0.6;stroke-miterlimit:10;"/>
  <path d="M 139.886719 81.09375 L 140.855469 81.09375 L 138.558594 83.671875 L 141.042969 86.453125 L 140.027344 86.453125 L 137.605469 83.734375 L 137.605469 86.453125 L 136.714844 86.453125 L 136.714844 81.09375 L 137.605469 81.09375 L 137.605469 83.6875 Z M 139.886719 81.09375 " transform=" rotate(  340 115.721 83.4519) " style="fill:none;stroke-width:3;stroke-linecap:butt;stroke-linejoin:round;stroke:rgb(100%,100%,100%);stroke-opacity:0.6;stroke-miterlimit:10;"/>
  <g transform=" rotate(  340 115.721 83.4519) " style="fill:rgb(13.333333%,13.333333%,13.333333%);fill-opacity:1;">
   <use xlink:href="#glyph0-1" y="86.451935" x="89.420708"/>
   <use xlink:href="#glyph0-2" y="86.451935" x="95.570708"/>
   <use xlink:href="#glyph0-3" y="86.451935" x="101.210708"/>
   <use xlink:href="#glyph0-4" y="86.451935" x="107.360708"/>
   <use xlink:href="#glyph0-5" y="86.451935" x="113.170708"/>
   <use xlink:href="#glyph0-6" y="86.451935" x="118.760708"/>
   <use xlink:href="#glyph0-7" y="86.451935" x="125.130708"/>
   <use xlink:href="#glyph0-8" y="86.451935" x="129.930708"/>
   <use xlink:href="#glyph0-9" y="86.451935" x="135.870708"/>
  </g>
 </g>
</svg>

<svg xmlns="http://www.w3.org/2000/svg" xmlns:xlink="http://www.w3.org/1999/xlink" viewBox="0 0 497 279"> <defs overflow="visible" style="stroke:none">  <path id="i" d="M4-5.4h1L2.7-2.8 5.2 0h-1L1.7-2.7V0H.8v-5.4h1v2.6Zm0 0"/>  <path id="h" d="M1.7-3.2h1.6c1.4 0 2.1.6 2.1 1.6 0 .5-.2.9-.4 1.2-.4.3-1 .4-1.7.4H.8v-5.4h1Zm2.8 1.6c0-.3 0-.4-.3-.6-.2-.3-.6-.3-1-.3H1.7v1.8h1.5c.4 0 .8 0 1-.2.2-.1.3-.4.3-.7Zm0 0"/>  <path id="g" d="M3 0c-.5 0-.9 0-1.3-.1-.3-.3-.6-.6-.7-.9-.4-.5-.5-1-.5-1.7 0-.6.2-1.1.5-1.5 0-.6.4-.8.8-1.1.2-.1.8-.2 1.2-.2l.8.1.7.2-.3.8-.6-.2H3c-1-.1-1.5.6-1.5 1.9 0 .7 0 1 .3 1.4.3.5.7.6 1.2.6h.8l.6-.3v.8a2 2 0 0 1-.6.2H3Zm0 0"/>  <path id="f" d="M1.7-5.4V-3h3v-2.4h.7V0h-.8v-2.4H1.7V0H.8v-5.4Zm0 0"/>  <path id="e" d="M1.2 0h-1l1.5-2.3c-.2 0-.4 0-.7-.2A1.5 1.5 0 0 1 .6-3l-.2-.8c0-.5.2-.9.6-1.2.3-.2.8-.4 1.3-.4h2.4V0H4v-2.1H2.6Zm.1-3.8c0 .3.1.6.3.8.4.1.6.1 1 .1h1.3v-1.7H2.4c-.4 0-.7 0-.9.2l-.2.6Zm0 0"/>  <path id="d" d="M4.8-5.4v4.7h.8v2.6h-.8V0H1v1.9H.2V-.7h.4a6.9 6.9 0 0 0 1-2.3A9.6 9.6 0 0 0 2-5.4Zm-.8.7H2.8l-.2 1.4L2-1.9c0 .5-.2.9-.5 1.2H4Zm0 0"/>  <path id="c" d="M3.4-5.5c.7 0 1.2.3 1.6.7.4.5.6 1.2.6 2.1 0 1-.2 1.7-.6 2-.4.7-1 .9-1.6.9-.4-.2-.8-.2-1-.3l-.7-.6v3.1H.8v-7.8h.8v.8h.2c.2-.4.3-.5.6-.6.2-.2.6-.3 1-.3Zm-.2.8c-.5 0-.9.1-1.1.5-.2.2-.4.7-.4 1.2v.3c0 .7.1 1.2.3 1.5.3.4.7.6 1.3.6.3 0 .6-.1.7-.4l.5-.6.2-1.1c0-.6-.1-1.1-.4-1.5-.2-.3-.6-.5-1-.5Zm0 0"/>  <path id="b" d="M3-5.5c.3 0 .7.1 1 .3a2 2 0 0 1 1 .9v1.8H1.5c0 .5.1 1 .4 1.4.3.3.7.4 1.3.4H4l.9-.3v.8L4 0a5 5 0 0 1-1 0 3 3 0 0 1-1.2-.1 2.2 2.2 0 0 1-1-1.1c0-.2-.2-.8-.2-1.3-.1-.7 0-1.2.2-1.6.2-.5.5-.9.9-1 .3-.2.7-.4 1.2-.4Zm0 .8c-.6 0-.9.1-1 .4-.4.2-.6.6-.6 1.1h2.8c0-.5-.1-.8-.3-1.1-.2-.3-.5-.4-1-.4Zm0 0"/>  <path id="a" d="M1 0v-7.1h4.2v.8H1.9v2.2h1c.7 0 1.3 0 1.7.1.4.3.7.6.8 1 .2.2.2.5.2.9 0 .7-.2 1.2-.6 1.6-.4.3-1 .5-2 .5Zm.9-.8h1c.8 0 1.3 0 1.5-.2.2-.3.3-.6.3-1s-.1-.9-.4-1l-1.5-.3h-1Zm0 0"/>  <path d="M1 0v-7.1h4V0Zm.4-.5h3.1v-6.1h-3Zm.1 0"/> </defs> <image xlink:href="svg/9/7_7.jpg" width="497" height="279"/> <path d="M90.4 86.5v-7.2h4.2v.8h-3.3v2.2h1c.9 0 1.4.1 1.7.3.4.2.7.4.8.7.2.3.3.7.3 1-.1.7-.2 1.3-.6 1.7-.5.3-1 .5-2 .5Zm.9-.8h1c.7 0 1.3-.1 1.5-.3.2-.4.3-.6.3-1 0-.5-.1-.8-.4-1-.3-.2-.8-.4-1.5-.4h-.9Zm7.2-4.7 1.2.3a2 2 0 0 1 .7.8c.2.4.3.9.3 1.3v.6H97c0 .6.2 1 .5 1.3.3.3.7.5 1.2.5l1-.1.7-.3v.8l-.8.3a5 5 0 0 1-.9 0 3 3 0 0 1-1.3-.3 2.2 2.2 0 0 1-1-.9c-.2-.3-.3-.9-.3-1.5s.1-1 .3-1.5l.8-1c.4-.2.8-.3 1.3-.3Zm0 .7c-.5 0-.8.3-1 .4-.3.3-.5.7-.5 1.2h2.8c0-.5-.1-1-.3-1.3-.3 0-.6-.3-1-.3Zm6.1-.7c.7 0 1.2.2 1.6.7.4.3.6 1.1.6 2 0 1.1-.2 1.8-.6 2.2-.4.4-1 .6-1.6.6-.4 0-.8 0-1-.2l-.7-.5v3.1h-.8V81h.7l.1.8.7-.6 1-.2Zm-.2.7c-.4 0-.9.3-1.1.5-.3.3-.3.8-.4 1.4v.2c.1.6.1 1.1.4 1.5.2.4.6.5 1.2.5.3 0 .5 0 .8-.2l.4-.8.3-1c-.1-.8-.2-1.3-.5-1.5-.2-.4-.5-.6-1-.6Zm7.8-.7v4.8h.8v2.5h-1v-1.8h-3.6v1.8h-.9v-2.6h.5a6.9 6.9 0 0 0 1-2.2 9.6 9.6 0 0 0 .4-2.4Zm-.9.9h-1.1c0 .3-.2.9-.3 1.3.1.5-.2 1-.4 1.4l-.6 1.1h2.4ZM114.4 86.5h-1l1.4-2.3-.6-.2a1.5 1.5 0 0 1-.4-.5l-.2-.8c0-.5.2-1 .5-1.2.4-.3.9-.4 1.4-.4h2.5v5.4h-1v-2.2h-1.3Zm0-3.8c.1.3.3.5.5.7l.9.2h1.2v-1.8h-1.4c-.4 0-.6.2-.9.3l-.2.6Zm6.1-1.7v2.4h2.9v-2.3h.9v5.4h-.9V84h-2.9v2.5h-.9V81Zm7.6 5.5c-.4 0-.9 0-1.1-.2-.5-.3-.8-.5-1.1-1l-.1-1.4c-.1-.8-.1-1.3.2-1.7.2-.4.5-.7.9-.9.4-.2.8-.3 1.3-.3h.8l.6.4-.3.6-.5-.2h-.6c-1 0-1.6.6-1.6 2 0 .6.1 1.1.4 1.5.2.3.6.5 1 .5l1-.1.5-.2v.8a2 2 0 0 1-.6.2h-.8Zm3.6-3.2h1.5c1.4 0 2.1.5 2.1 1.5 0 .5-.1 1-.5 1.2-.3.3-.8.5-1.6.5h-2.4V81h.9Zm2.8 1.6c0-.4-.2-.6-.5-.7l-.9-.2h-1.4v1.8h1.5l.8-.3c.3 0 .5-.3.5-.5Zm5.4-3.9h1l-2.3 2.8 2.4 2.7h-1l-2.4-2.8v2.8h-.9V81h1v2.7Zm0 0" style="fill:none;stroke-width:3;stroke-linecap:butt;stroke-linejoin:round;stroke:#fff;stroke-opacity:.6;stroke-miterlimit:10" transform=" rotate(  340 115.721 83.4519) "/> <g style="fill:#222;fill-opacity:1" transform=" rotate(  340 115.721 83.4519) ">  <use xlink:href="#a" x="89.4" y="86.5"/>  <use xlink:href="#b" x="95.6" y="86.5"/>  <use xlink:href="#c" x="101.2" y="86.5"/>  <use xlink:href="#d" x="107.4" y="86.5"/>  <use xlink:href="#e" x="113.2" y="86.5"/>  <use xlink:href="#f" x="118.8" y="86.5"/>  <use xlink:href="#g" x="125.1" y="86.5"/>  <use xlink:href="#h" x="129.9" y="86.5"/>  <use xlink:href="#i" x="135.9" y="86.5"/> </g></svg>
